packages/foundations/assets/icons/functional/images/maps/map_pin_filled.svg

<svg xmlns="http://www.w3.org/2000/svg" width="24" height="24" fill="none"><path fill="#1A1C1F" fill-rule="evenodd" d="M11.26 2.044c-2.454.258-4.551 1.611-5.575 3.596-.984 1.909-.9 3.887.266 6.22.326.653 1.781 3.379 3.32 6.22 2.113 3.901 2.003 3.725 2.419 3.863.334.111.754.013.976-.229.16-.175 1.25-2.134 3.623-6.514 2.065-3.811 2.169-4.025 2.426-5.002.209-.789.258-1.155.26-1.918.002-.976-.141-1.63-.54-2.468-.38-.8-1.195-1.78-1.932-2.322-1.498-1.102-3.433-1.636-5.243-1.446m1.151 5.015c.377.08.642.233.97.56.32.321.474.603.565 1.034.219 1.05-.555 2.131-1.656 2.315-1.029.172-2.083-.609-2.25-1.668-.186-1.171.745-2.26 1.96-2.295.077-.002.262.022.411.054"/></svg>

<svg width="24" height="24" viewBox="0 0 24 24" fill="none" xmlns="http://www.w3.org/2000/svg"><path d="M11.260 2.044 C 8.806 2.302,6.709 3.655,5.685 5.640 C 4.701 7.549,4.785 9.527,5.951 11.860 C 6.277 12.513,7.732 15.239,9.271 18.080 C 11.384 21.981,11.274 21.805,11.690 21.943 C 12.024 22.054,12.444 21.956,12.666 21.714 C 12.826 21.539,13.916 19.580,16.289 15.200 C 18.354 11.389,18.458 11.175,18.715 10.198 C 18.924 9.409,18.973 9.043,18.975 8.280 C 18.977 7.304,18.834 6.650,18.435 5.812 C 18.055 5.012,17.240 4.032,16.503 3.490 C 15.005 2.388,13.070 1.854,11.260 2.044 M12.411 7.059 C 12.788 7.139,13.053 7.292,13.381 7.619 C 13.701 7.940,13.855 8.222,13.946 8.653 C 14.165 9.703,13.391 10.784,12.290 10.968 C 11.261 11.140,10.207 10.359,10.040 9.300 C 9.854 8.129,10.785 7.040,12.000 7.005 C 12.077 7.003,12.262 7.027,12.411 7.059 " fill="#1A1C1F" stroke="none" fill-rule="evenodd"></path></svg>
